;FLAVOR:Marlin
;TIME:3109
;Filament used: 1.9505m
;Layer height: 0.2
;MINX:85.001
;MINY:74.408
;MINZ:0.2
;MAXX:146.951
;MAXY:123.809
;MAXZ:34
;TARGET_MACHINE.NAME:Creality Ender-3
;Generated with Cura_SteamEngine 5.10.0
M140 S50
M105
M190 S50
M104 S200
M105
M109 S200
; Ender 3 Custom Start G-code
G92 E0 ; Reset Extruder
G28 ; Home all axes
G1 Z2.0 F3000 ; Move Z Axis up little to prevent scratching of Heat Bed
G1 X0.1 Y20 Z0.3 F5000.0 ; Move to start position
G1 X0.1 Y200.0 Z0.3 F1500.0 E15 ; Draw the first line
G1 X0.4 Y200.0 Z0.3 F5000.0 ; Move to side a little
G1 X0.4 Y20 Z0.3 F1500.0 E30 ; Draw the second line
G92 E0 ; Reset Extruder
G1 Z2.0 F3000 ; Move Z Axis up little to prevent scratching of Heat Bed
G1 X5 Y20 Z0.3 F5000.0 ; Move over to prevent blob squish
M82 ;absolute extrusion mode
G92 E0
G92 E0
G1 F2700 E-5
;LAYER_COUNT:170
;LAYER:0
M107
G0 F6000 X89.416 Y88.773 Z0.2
;TYPE:SKIRT
G1 F2700 E0
G1 F1200 X90.271 Y87.946 E0.03956
G1 X92.689 Y85.857 E0.14584
G1 X94.55 Y84.16 E0.22961
G1 X96.069 Y82.704 E0.29959
G1 X97.424 Y81.36 E0.36307
G1 X99.518 Y79.192 E0.46332
G1 X99.888 Y78.798 E0.4813
G1 X100.587 Y78.12 E0.51369
G1 X101.286 Y77.549 E0.54371
G1 X102.162 Y76.956 E0.57889
G1 X103.272 Y76.362 E0.62076
G1 X104.025 Y76.022 E0.64824
G1 X104.61 Y75.777 E0.66934
G1 X105.74 Y75.375 E0.70923
G1 X106.361 Y75.198 E0.73071
G1 X108.143 Y74.741 E0.79189
G1 X109.027 Y74.556 E0.82193
G1 X110.065 Y74.433 E0.8567
G1 X111.039 Y74.408 E0.8891
G1 X112.019 Y74.467 E0.92176
G1 X114.735 Y74.759 E1.01261
G1 X116.105 Y74.996 E1.05886
G1 X118.456 Y75.555 E1.13923
G1 X120.851 Y76.058 E1.22063
G1 X124.598 Y76.716 E1.34716
G1 X125.369 Y76.877 E1.37336
G1 X126.304 Y77.129 E1.40556
G1 X127.073 Y77.371 E1.43238
G1 X127.933 Y77.676 E1.46273
G1 X128.57 Y77.935 E1.4856
G1 X129.081 Y78.164 E1.50422
G1 X129.8 Y78.519 E1.53089
G1 X130.178 Y78.725 E1.54521
G1 X130.77 Y79.07 E1.568
G1 X131.268 Y79.384 E1.58758
G1 X131.852 Y79.777 E1.61099
G1 X132.382 Y80.162 E1.63278
G1 X132.881 Y80.548 E1.65377
G1 X133.482 Y81.04 E1.6796
G1 X133.979 Y81.474 E1.70154
G1 X134.67 Y82.123 E1.73307
G1 X135.161 Y82.615 E1.75619
G1 X136.475 Y83.971 E1.819
G1 X138.258 Y85.711 E1.90186
G1 X140.83 Y88.062 E2.01775
G1 X141.42 Y88.59 E2.04409
G1 X142.135 Y89.292 E2.07742
G1 X142.669 Y89.888 E2.10403
G1 X143.123 Y90.437 E2.12773
G1 X143.781 Y91.317 E2.16427
G1 X143.938 Y91.554 E2.17373
G1 X144.349 Y92.22 E2.19976
G1 X144.658 Y92.766 E2.22062
G1 X145.228 Y93.936 E2.26391
G1 X145.534 Y94.678 E2.29061
G1 X145.856 Y95.576 E2.32234
G1 X146.067 Y96.266 E2.34633
G1 X146.346 Y97.407 E2.3854
G1 X146.504 Y98.26 E2.41426
G1 X146.607 Y98.952 E2.43753
G1 X146.886 Y101.406 E2.51967
G1 X146.951 Y102.392 E2.55254
G1 X146.903 Y103.671 E2.59511
G1 X146.805 Y104.644 E2.62763
G1 X146.698 Y105.411 E2.65339
G1 X146.521 Y106.376 E2.68602
G1 X146.338 Y107.218 E2.71468
G1 X146.087 Y108.16 E2.7471
G1 X145.755 Y109.072 E2.77939
G1 X145.394 Y109.856 E2.80809
G1 X145.155 Y110.325 E2.8256
G1 X144.903 Y110.788 E2.84313
G1 X143.702 Y112.879 E2.92334
G1 X142.981 Y114.192 E2.97316
G1 X142.578 Y114.865 E2.99925
G1 X142.347 Y115.22 E3.01333
G1 X141.542 Y116.301 E3.05816
G1 X141.291 Y116.596 E3.07105
G1 X140.624 Y117.305 E3.10342
G1 X139.924 Y117.931 E3.13466
G1 X139.078 Y118.56 E3.16972
G1 X138.646 Y118.849 E3.18701
G1 X137.813 Y119.352 E3.21937
G1 X136.938 Y119.779 E3.25175
G1 X136.028 Y120.129 E3.28418
G1 X135.103 Y120.393 E3.31618
G1 X134.531 Y120.527 E3.33572
G1 X133.642 Y120.696 E3.36581
G1 X130.923 Y121.095 E3.45722
G1 X128.475 Y121.524 E3.53988
G1 X126.032 Y122.024 E3.62282
G1 X124.348 Y122.423 E3.68038
G1 X122.367 Y122.867 E3.7479
G1 X119.407 Y123.506 E3.84862
G1 X118.962 Y123.589 E3.86368
G1 X117.707 Y123.746 E3.90574
G1 X116.761 Y123.798 E3.93725
G1 X116.262 Y123.809 E3.95385
G1 X115.565 Y123.803 E3.97704
G1 X115.052 Y123.78 E3.99412
G1 X114.54 Y123.745 E4.01119
G1 X113.501 Y123.644 E4.04591
G1 X112.686 Y123.538 E4.07324
G1 X112.115 Y123.45 E4.09246
G1 X111.513 Y123.333 E4.11285
G1 X109.281 Y122.847 E4.18883
G1 X108.195 Y122.624 E4.2257
G1 X105.134 Y121.945 E4.32999
G1 X102.684 Y121.478 E4.41294
G1 X99.996 Y121.048 E4.50348
G1 X98.378 Y120.816 E4.55785
G1 X97.062 Y120.536 E4.6026
G1 X96.699 Y120.435 E4.61513
G1 X95.325 Y119.954 E4.66355
G1 X94.024 Y119.312 E4.7118
G1 X93.642 Y119.093 E4.72645
G1 X92.851 Y118.59 E4.75763
G1 X92.104 Y118.023 E4.78882
G1 X91.858 Y117.816 E4.79951
G1 X91.137 Y117.155 E4.83204
G1 X90.402 Y116.343 E4.86847
G1 X90.094 Y115.965 E4.88469
G1 X89.539 Y115.22 E4.91559
G1 X89.263 Y114.794 E4.93247
G1 X88.86 Y114.123 E4.9585
G1 X88.448 Y113.381 E4.98673
G1 X87.464 Y111.529 E5.05648
G1 X87.032 Y110.738 E5.08646
G1 X86.567 Y109.774 E5.12206
G1 X86.311 Y109.17 E5.14388
G1 X86.117 Y108.679 E5.16144
G1 X85.918 Y108.132 E5.1808
G1 X85.634 Y107.228 E5.21231
G1 X85.354 Y105.824 E5.25993
G1 X85.128 Y104.097 E5.31786
G1 X85.054 Y103.311 E5.34412
G1 X85.001 Y102.364 E5.37567
G1 X85.008 Y101.071 E5.41867
G1 X85.078 Y100.114 E5.45059
G1 X85.264 Y98.298 E5.5113
G1 X85.411 Y97.151 E5.54976
G1 X85.528 Y96.452 E5.57334
G1 X85.631 Y95.94 E5.59071
G1 X85.877 Y94.959 E5.62435
G1 X86.018 Y94.496 E5.64044
G1 X86.348 Y93.561 E5.67342
G1 X86.475 Y93.251 E5.68456
G1 X86.835 Y92.461 E5.71344
G1 X87.049 Y92.038 E5.72921
G1 X87.667 Y90.974 E5.77013
G1 X87.921 Y90.592 E5.78539
G1 X88.491 Y89.814 E5.81747
G1 X88.978 Y89.247 E5.84233
G1 X89.416 Y88.773 E5.86379
G0 F6000 X89.694 Y89.061
G1 F1200 X90.549 Y88.234 E5.90336
G1 X92.959 Y86.153 E6.00926
G1 X94.82 Y84.456 E6.09303
G1 X96.346 Y82.993 E6.16334
G1 X97.706 Y81.644 E6.22705
G1 X99.806 Y79.47 E6.32758
G1 X100.167 Y79.085 E6.34514
G1 X100.84 Y78.43 E6.37637
G1 X101.539 Y77.859 E6.40639
G1 X102.351 Y77.309 E6.43901
G1 X103.461 Y76.715 E6.48089
G1 X104.18 Y76.391 E6.50712
G1 X104.744 Y76.154 E6.52746
G1 X105.85 Y75.76 E6.56651
G1 X106.471 Y75.583 E6.58799
G1 X108.225 Y75.133 E6.64822
G1 X109.109 Y74.948 E6.67826
G1 X110.076 Y74.833 E6.71065
G1 X111.015 Y74.807 E6.74189
G1 X111.976 Y74.865 E6.77391
G1 X114.692 Y75.157 E6.86477
G1 X116.012 Y75.385 E6.90932
G1 X118.363 Y75.944 E6.98969
G1 X120.782 Y76.452 E7.0719
G1 X124.516 Y77.108 E7.198
G1 X125.287 Y77.269 E7.2242
G1 X126.184 Y77.51 E7.25509
G1 X126.939 Y77.748 E7.28142
G1 X127.782 Y78.047 E7.31117
G1 X128.419 Y78.306 E7.33404
G1 X128.904 Y78.523 E7.35171
G1 X129.609 Y78.871 E7.37786
G1 X129.976 Y79.07 E7.39175
G1 X130.557 Y79.409 E7.41412
G1 X131.045 Y79.716 E7.4333
G1 X131.617 Y80.101 E7.45623
G1 X132.137 Y80.478 E7.47759
G1 X132.628 Y80.858 E7.49824
G1 X133.219 Y81.341 E7.52363
G1 X133.705 Y81.765 E7.54508
G1 X134.387 Y82.406 E7.57621
G1 X134.874 Y82.893 E7.59912
G1 X136.196 Y84.257 E7.66229
G1 X137.988 Y86.006 E7.74558
G1 X140.563 Y88.36 E7.86162
G1 X141.14 Y88.876 E7.88736
G1 X141.837 Y89.559 E7.91982
G1 X142.361 Y90.143 E7.94592
G1 X142.803 Y90.676 E7.96895
G1 X143.448 Y91.539 E8.00478
G1 X143.598 Y91.764 E8.01378
G1 X144.001 Y92.417 E8.0393
G1 X144.298 Y92.941 E8.05933
G1 X144.858 Y94.089 E8.10181
G1 X145.157 Y94.813 E8.12787
G1 X145.479 Y95.711 E8.1596
G1 X145.678 Y96.361 E8.18221
G1 X145.957 Y97.502 E8.22127
G1 X146.108 Y98.319 E8.24891
G1 X146.211 Y99.011 E8.27218
G1 X146.487 Y101.433 E8.35326
G1 X146.551 Y102.377 E8.38473
G1 X146.503 Y103.656 E8.42729
G1 X146.409 Y104.589 E8.45848
G1 X146.305 Y105.339 E8.48367
G1 X146.13 Y106.291 E8.51586
G1 X145.951 Y107.116 E8.54394
G1 X145.711 Y108.024 E8.57518
G1 X145.392 Y108.905 E8.60634
G1 X145.038 Y109.674 E8.6345
G1 X144.803 Y110.134 E8.65168
G1 X144.556 Y110.589 E8.6689
G1 X143.351 Y112.686 E8.74934
G1 X142.63 Y113.999 E8.79916
G1 X142.243 Y114.647 E8.82426
G1 X142.026 Y114.981 E8.83751
G1 X141.221 Y116.062 E8.88234
G1 X140.999 Y116.322 E8.89371
G1 X140.357 Y117.007 E8.92494
G1 X139.657 Y117.633 E8.95617
G1 X138.855 Y118.228 E8.98938
G1 X138.439 Y118.507 E9.00604
G1 X137.637 Y118.993 E9.03723
G1 X136.794 Y119.406 E9.06846
G1 X135.918 Y119.744 E9.09969
G1 X134.993 Y120.008 E9.13168
G1 X134.456 Y120.134 E9.15003
G1 X133.584 Y120.3 E9.17955
G1 X130.865 Y120.699 E9.27095
G1 X128.395 Y121.132 E9.35436
G1 X125.952 Y121.632 E9.4373
G1 X124.256 Y122.034 E9.49527
G1 X122.283 Y122.476 E9.56252
G1 X119.333 Y123.113 E9.6629
G1 X118.912 Y123.192 E9.67714
G1 X117.657 Y123.349 E9.71921
G1 X116.752 Y123.398 E9.74936
G1 X116.266 Y123.409 E9.76552
G1 X115.582 Y123.403 E9.78827
G1 X115.079 Y123.381 E9.80502
G1 X114.579 Y123.347 E9.82169
G1 X113.552 Y123.247 E9.85601
G1 X112.747 Y123.143 E9.88301
G1 X112.191 Y123.057 E9.90172
G1 X111.598 Y122.942 E9.92181
G1 X109.362 Y122.455 E9.99792
G1 X108.282 Y122.233 E10.03459
G1 X105.221 Y121.554 E10.13888
G1 X102.756 Y121.084 E10.22234
G1 X100.053 Y120.652 E10.31338
G1 X98.435 Y120.42 E10.36775
G1 X97.169 Y120.151 E10.4108
G1 X96.831 Y120.057 E10.42247
G1 X95.457 Y119.576 E10.47088
G1 X94.223 Y118.965 E10.51668
G1 X93.857 Y118.755 E10.53072
G1 X93.066 Y118.252 E10.5619
G1 X92.361 Y117.716 E10.59135
G1 X92.128 Y117.521 E10.60146
G1 X91.433 Y116.886 E10.63277
G1 X90.712 Y116.09 E10.66849
G1 X90.415 Y115.726 E10.68411
G1 X89.86 Y114.981 E10.71501
G1 X89.606 Y114.588 E10.73058
G1 X89.21 Y113.929 E10.75615
G1 X88.801 Y113.193 E10.78415
G1 X87.817 Y111.341 E10.85391
G1 X87.392 Y110.564 E10.88336
G1 X86.935 Y109.618 E10.91831
G1 X86.683 Y109.023 E10.9398
G1 X86.493 Y108.542 E10.957
G1 X86.3 Y108.012 E10.97576
G1 X86.016 Y107.108 E11.00727
G1 X85.751 Y105.772 E11.05258
G1 X85.526 Y104.059 E11.11004
G1 X85.453 Y103.289 E11.13576
G1 X85.401 Y102.366 E11.16651
G1 X85.407 Y101.1 E11.20862
G1 X85.476 Y100.155 E11.24013
G1 X85.661 Y98.349 E11.30052
G1 X85.806 Y97.217 E11.33847
G1 X85.92 Y96.531 E11.3616
G1 X86.019 Y96.037 E11.37836
G1 X86.26 Y95.075 E11.41135
G1 X86.395 Y94.629 E11.42685
G1 X86.719 Y93.712 E11.45919
G1 X86.839 Y93.417 E11.46979
G1 X87.192 Y92.641 E11.49814
G1 X87.395 Y92.239 E11.51312
G1 X88.001 Y91.195 E11.55327
G1 X88.244 Y90.828 E11.56791
G1 X88.795 Y90.074 E11.59897
G1 X89.272 Y89.518 E11.62333
G1 X89.694 Y89.061 E11.64402
G0 F6000 X89.972 Y89.348
G1 F1200 X90.81 Y88.537 E11.68281
G1 X93.22 Y86.456 E11.78871
G1 X95.097 Y84.745 E11.87319
G1 X96.622 Y83.281 E11.9435
G1 X97.994 Y81.922 E12.00773
G1 X100.094 Y79.748 E12.10826
G1 X100.447 Y79.371 E12.12544
G1 X101.093 Y78.74 E12.15548
G1 X101.792 Y78.169 E12.1855
G1 X102.54 Y77.662 E12.21555
G1 X103.626 Y77.08 E12.25653
G1 X104.335 Y76.76 E12.2824
G1 X104.878 Y76.531 E12.302
G1 X105.96 Y76.145 E12.34021
G1 X106.581 Y75.968 E12.36169
G1 X108.307 Y75.525 E12.42096
G1 X109.191 Y75.34 E12.451
G1 X110.088 Y75.233 E12.48104
G1 X110.991 Y75.206 E12.51109
G1 X111.933 Y75.263 E12.54248
G1 X114.649 Y75.555 E12.63333
G1 X115.919 Y75.774 E12.6762
G1 X118.27 Y76.333 E12.75657
G1 X120.713 Y76.846 E12.8396
G1 X124.434 Y77.5 E12.96526
G1 X125.205 Y77.661 E12.99145
G1 X126.064 Y77.891 E13.02103
G1 X126.805 Y78.125 E13.04688
G1 X127.631 Y78.418 E13.07603
G1 X128.268 Y78.677 E13.0989
G1 X128.727 Y78.882 E13.11562
G1 X129.419 Y79.223 E13.14127
G1 X129.774 Y79.415 E13.1547
G1 X130.344 Y79.748 E13.17665
G1 X130.822 Y80.048 E13.19543
G1 X131.382 Y80.425 E13.21788
G1 X131.893 Y80.795 E13.23886
G1 X132.375 Y81.167 E13.25911
G1 X132.956 Y81.643 E13.28409
G1 X133.431 Y82.057 E13.30505
G1 X134.104 Y82.689 E13.33576
G1 X134.587 Y83.171 E13.35845
G1 X135.917 Y84.543 E13.42201
G1 X137.718 Y86.301 E13.50572
G1 X140.296 Y88.658 E13.6219
G1 X140.86 Y89.162 E13.64705
G1 X141.539 Y89.826 E13.67864
G1 X142.053 Y90.399 E13.70424
G1 X142.483 Y90.916 E13.72661
G1 X143.116 Y91.762 E13.76175
G1 X143.258 Y91.974 E13.77024
G1 X143.653 Y92.614 E13.79525
G1 X143.938 Y93.116 E13.81445
G1 X144.498 Y94.264 E13.85694
G1 X144.78 Y94.948 E13.88154
G1 X145.102 Y95.846 E13.91327
G1 X145.289 Y96.456 E13.93449
G1 X145.568 Y97.597 E13.97356
G1 X145.712 Y98.378 E13.99997
G1 X145.815 Y99.07 E14.02324
G1 X146.088 Y101.461 E14.10329
G1 X146.151 Y102.362 E14.13333
G1 X146.103 Y103.641 E14.1759
G1 X146.013 Y104.534 E14.20575
G1 X145.912 Y105.267 E14.23036
G1 X145.739 Y106.206 E14.26212
G1 X145.564 Y107.015 E14.28964
G1 X145.335 Y107.888 E14.31966
G1 X145.028 Y108.738 E14.34972
G1 X144.682 Y109.492 E14.37731
G1 X144.452 Y109.943 E14.39415
G1 X144.209 Y110.39 E14.41107
G1 X143.004 Y112.487 E14.49152
G1 X142.287 Y113.794 E14.5411
G1 X141.907 Y114.43 E14.56574
G1 X141.705 Y114.742 E14.5781
G1 X140.9 Y115.823 E14.62293
G1 X140.707 Y116.049 E14.63282
G1 X140.09 Y116.709 E14.66287
G1 X139.418 Y117.312 E14.6929
G1 X138.632 Y117.896 E14.72546
G1 X138.231 Y118.165 E14.74152
G1 X137.46 Y118.634 E14.77154
G1 X136.65 Y119.033 E14.80157
G1 X135.808 Y119.359 E14.8316
G1 X134.883 Y119.623 E14.8636
G1 X134.381 Y119.741 E14.88075
G1 X133.526 Y119.904 E14.9097
G1 X130.807 Y120.303 E15.0011
G1 X128.315 Y120.74 E15.08525
G1 X125.872 Y121.24 E15.16819
G1 X124.164 Y121.645 E15.22657
G1 X122.199 Y122.085 E15.29355
G1 X119.259 Y122.72 E15.39359
G1 X118.862 Y122.795 E15.40702
G1 X117.607 Y122.952 E15.44909
G1 X116.743 Y122.998 E15.47787
G1 X116.27 Y123.009 E15.49361
G1 X115.599 Y123.003 E15.51592
G1 X115.106 Y122.982 E15.53234
G1 X114.618 Y122.949 E15.5486
G1 X113.603 Y122.85 E15.58252
G1 X112.808 Y122.748 E15.60918
G1 X112.267 Y122.664 E15.62739
G1 X111.683 Y122.551 E15.64718
G1 X109.443 Y122.063 E15.72343
G1 X108.369 Y121.842 E15.7599
G1 X105.308 Y121.163 E15.86418
G1 X102.828 Y120.69 E15.94815
G1 X100.11 Y120.256 E16.0397
G1 X98.492 Y120.024 E16.09406
G1 X97.276 Y119.766 E16.13541
G1 X96.962 Y119.679 E16.14624
G1 X95.634 Y119.217 E16.19301
G1 X94.422 Y118.618 E16.23798
G1 X94.071 Y118.417 E16.25143
G1 X93.308 Y117.934 E16.28146
G1 X92.617 Y117.408 E16.31035
G1 X92.397 Y117.225 E16.31987
G1 X91.729 Y116.617 E16.34991
G1 X91.022 Y115.837 E16.38492
G1 X90.736 Y115.487 E16.39996
G1 X90.196 Y114.763 E16.43
G1 X89.949 Y114.382 E16.4451
G1 X89.56 Y113.735 E16.47021
G1 X89.154 Y113.005 E16.49799
G1 X88.17 Y111.153 E16.56774
G1 X87.752 Y110.39 E16.59668
G1 X87.303 Y109.462 E16.63097
G1 X87.055 Y108.876 E16.65213
G1 X86.869 Y108.405 E16.66897
G1 X86.681 Y107.891 E16.68718
G1 X86.408 Y107.03 E16.71722
G1 X86.148 Y105.72 E16.76164
G1 X85.924 Y104.021 E16.81864
G1 X85.852 Y103.266 E16.84386
G1 X85.801 Y102.368 E16.87378
G1 X85.806 Y101.129 E16.91499
G1 X85.874 Y100.196 E16.9461
G1 X86.058 Y98.4 E17.00615
G1 X86.201 Y97.282 E17.04364
G1 X86.312 Y96.609 E17.06632
G1 X86.407 Y96.134 E17.08244
G1 X86.643 Y95.19 E17.1148
G1 X86.772 Y94.762 E17.12967
G1 X87.09 Y93.863 E17.16138
G1 X87.21 Y93.568 E17.17198
G1 X87.549 Y92.821 E17.19926
G1 X87.741 Y92.44 E17.21345
G1 X88.347 Y91.396 E17.2536
G1 X88.567 Y91.064 E17.26685
G1 X89.099 Y90.334 E17.29689
G1 X89.566 Y89.789 E17.32076
G1 X89.972 Y89.348 E17.3407
G1 F2700 E12.3407
G0 F6000 X108.493 Y86.288
G1 F2700 E17.3407
G1 F1200 X108.9 Y86.11 E17.35547
G1 X110.891 Y85.59 E17.42392
G1 X112.438 Y85.782 E17.47576
G1 X112.444 Y85.783 E17.47597
G1 X113.517 Y85.884 E17.51181
G1 X114.656 Y86.414 E17.5536
G1 X114.578 Y86.665 E17.56234
G1 X113.592 Y86.496 E17.59561
G1 X113.583 Y86.495 E17.59591
G1 X113.01 Y86.424 E17.61512
G1 X113.002 Y86.423 E17.61538
G1 X111.738 Y86.315 E17.65758
G1 X111.719 Y86.314 E17.65821
G1 X111.083 Y86.319 E17.67937
G1 X111.063 Y86.32 E17.68003
G1 X110.127 Y86.422 E17.71135
G1 X109.184 Y86.472 E17.74276
G1 X109.175 Y86.473 E17.74306
G1 X108.695 Y86.522 E17.7591
G1 X108.69 Y86.523 E17.75927
G1 X108.562 Y86.539 E17.76356
G1 X108.493 Y86.288 E17.77222
G1 F2700 E12.77222
;MESH:DarkKnight.stl
G0 F6000 X109.305 Y88.27
G0 X116.216 Y112.217
;TYPE:WALL-INNER
G1 F2700 E17.77222
G1 F1200 X116.885 Y112.182 E17.7945
G1 X117.259 Y112.112 E17.80716
G1 X117.662 Y111.987 E17.82119
G1 X118.777 Y111.577 E17.86071
G1 X119.263 Y111.447 E17.87744
G1 X119.698 Y111.401 E17.89199
G1 X120.522 Y111.365 E17.91942
G1 X120.98 Y111.297 E17.93482
G1 X121.528 Y111.132 E17.95385
G1 X121.827 Y110.981 E17.965
G1 X122.076 Y110.813 E17.97499
G1 X122.277 Y110.641 E17.98379
G1 X122.846 Y110.061 E18.01081
G1 X123.269 Y109.834 E18.02678
G1 X123.848 Y109.774 E18.04614
G1 X124.442 Y109.917 E18.06646
G1 X124.956 Y110.016 E18.08387
G1 X125.256 Y110.06 E18.09395
G1 X126.029 Y110.06 E18.11966
G1 X126.41 Y110.031 E18.13237
