;FLAVOR:Marlin
;TIME:5419
;Filament used: 3.33113m
;Layer height: 0.2
;MINX:86.255
;MINY:62.856
;MINZ:0.2
;MAXX:147.043
;MAXY:115.105
;MAXZ:43.2
;TARGET_MACHINE.NAME:Creality Ender-3
;Generated with Cura_SteamEngine 5.10.0
M140 S50
M105
M190 S50
M104 S200
M105
M109 S200
; Ender 3 Custom Start G-code
G92 E0 ; Reset Extruder
G28 ; Home all axes
G1 Z2.0 F3000 ; Move Z Axis up little to prevent scratching of Heat Bed
G1 X0.1 Y20 Z0.3 F5000.0 ; Move to start position
G1 X0.1 Y200.0 Z0.3 F1500.0 E15 ; Draw the first line
G1 X0.4 Y200.0 Z0.3 F5000.0 ; Move to side a little
G1 X0.4 Y20 Z0.3 F1500.0 E30 ; Draw the second line
G92 E0 ; Reset Extruder
G1 Z2.0 F3000 ; Move Z Axis up little to prevent scratching of Heat Bed
G1 X5 Y20 Z0.3 F5000.0 ; Move over to prevent blob squish
M82 ;absolute extrusion mode
G92 E0
G92 E0
G1 F2700 E-5
;LAYER_COUNT:216
;LAYER:0
M107
G0 F6000 X90.115 Y78.355 Z0.2
;TYPE:SKIRT
G1 F2700 E0
G1 F1200 X90.48 Y77.952 E0.01808
G1 X92.213 Y75.986 E0.10525
G1 X93.799 Y74.081 E0.1877
G1 X95.391 Y72.055 E0.2734
G1 X96.148 Y71.05 E0.31524
G1 X96.512 Y70.591 E0.33473
G1 X97.13 Y69.878 E0.36611
G1 X98.166 Y68.904 E0.41341
G1 X99.281 Y68.08 E0.45952
G1 X102.198 Y66.142 E0.576
G1 X103.035 Y65.648 E0.60833
G1 X103.916 Y65.227 E0.6408
G1 X104.762 Y64.91 E0.67085
G1 X105.39 Y64.723 E0.69264
G1 X107.112 Y64.268 E0.75188
G1 X107.632 Y64.144 E0.76966
G1 X109.554 Y63.753 E0.8349
G1 X112.298 Y63.128 E0.9285
G1 X113.187 Y62.966 E0.95856
G1 X114.598 Y62.862 E1.00561
G1 X115.477 Y62.856 E1.03485
G1 X115.957 Y62.865 E1.05082
G1 X116.925 Y62.925 E1.08308
G1 X118.18 Y63.066 E1.12508
G1 X119.053 Y63.193 E1.15442
G1 X120.046 Y63.361 E1.18792
G1 X122.631 Y63.761 E1.27492
G1 X124.05 Y63.942 E1.3225
G1 X124.61 Y64.026 E1.34133
G1 X125.524 Y64.204 E1.3723
G1 X126.011 Y64.334 E1.38907
G1 X127.986 Y64.904 E1.45744
G1 X128.908 Y65.218 E1.48983
G1 X129.799 Y65.611 E1.52222
G1 X130.591 Y66.046 E1.55228
G1 X131.423 Y66.603 E1.58558
G1 X131.831 Y66.92 E1.60276
G1 X133.299 Y68.122 E1.66587
G1 X135.278 Y69.679 E1.74962
G1 X137.264 Y71.155 E1.83192
G1 X140.384 Y73.309 E1.95802
G1 X141.921 Y74.325 E2.0193
G1 X142.708 Y74.898 E2.05168
G1 X143.389 Y75.491 E2.08171
G1 X144.113 Y76.245 E2.11648
G1 X144.721 Y77.006 E2.14888
G1 X145.242 Y77.79 E2.18018
G1 X145.797 Y78.827 E2.2193
G1 X146.019 Y79.307 E2.23689
G1 X146.387 Y80.208 E2.26926
G1 X146.674 Y81.139 E2.30167
G1 X146.877 Y82.091 E2.33404
G1 X146.99 Y82.987 E2.36408
G1 X147.024 Y83.562 E2.38324
G1 X147.039 Y84.197 E2.40436
G1 X147.043 Y86.028 E2.46526
G1 X147.032 Y86.877 E2.4935
G1 X146.973 Y87.861 E2.52629
G1 X146.779 Y89.064 E2.56682
G1 X146.693 Y89.45 E2.57997
G1 X146.433 Y90.397 E2.61264
G1 X146.028 Y91.459 E2.65044
G1 X145.623 Y92.366 E2.68348
G1 X145.219 Y93.174 E2.71352
G1 X144.671 Y94.06 E2.74817
G1 X144.167 Y94.74 E2.77632
G1 X143.834 Y95.152 E2.79394
G1 X142.998 Y96.073 E2.83531
G1 X140.823 Y98.257 E2.93783
G1 X139.073 Y100.123 E3.02292
G1 X137.367 Y102.051 E3.10854
G1 X136.798 Y102.711 E3.13753
G1 X136.305 Y103.247 E3.16175
G1 X135.597 Y103.964 E3.19526
G1 X134.847 Y104.681 E3.22977
G1 X134.019 Y105.39 E3.26603
G1 X132.681 Y106.422 E3.32223
G1 X132.27 Y106.722 E3.33915
G1 X130.748 Y107.771 E3.40064
G1 X128.708 Y109.238 E3.48421
G1 X126.732 Y110.747 E3.5669
G1 X126.13 Y111.236 E3.5927
G1 X125.913 Y111.399 E3.60173
G1 X124.944 Y112.173 E3.64297
G1 X123.837 Y112.949 E3.68794
G1 X123.409 Y113.211 E3.70463
G1 X122.557 Y113.68 E3.73698
G1 X121.681 Y114.068 E3.76884
G1 X121.182 Y114.249 E3.7865
G1 X120.46 Y114.491 E3.81182
G1 X119.524 Y114.757 E3.84419
G1 X118.637 Y114.928 E3.87423
G1 X118.036 Y115.002 E3.89437
G1 X117.445 Y115.057 E3.91412
G1 X116.469 Y115.105 E3.94662
G1 X115.459 Y115.061 E3.98024
G1 X114.814 Y115 E4.00179
G1 X113.849 Y114.865 E4.0342
G1 X112.916 Y114.649 E4.06605
G1 X112.428 Y114.501 E4.08301
G1 X111.753 Y114.278 E4.10666
G1 X110.843 Y113.93 E4.13906
G1 X110.002 Y113.521 E4.17016
G1 X109.087 Y112.986 E4.20542
G1 X108.334 Y112.488 E4.23544
G1 X107.897 Y112.156 E4.2537
G1 X106.536 Y111.054 E4.31194
G1 X104.56 Y109.515 E4.39525
G1 X102.512 Y108.009 E4.4798
G1 X100.633 Y106.703 E4.55591
G1 X100.187 Y106.375 E4.57432
G1 X98.851 Y105.338 E4.63057
G1 X98.054 Y104.652 E4.66555
G1 X95.704 Y102.424 E4.77325
G1 X93.829 Y100.744 E4.85699
G1 X91.002 Y98.372 E4.97973
G1 X90.122 Y97.564 E5.01946
G1 X89.902 Y97.335 E5.03002
G1 X89.008 Y96.286 E5.07586
G1 X88.801 Y96.007 E5.08742
G1 X88.094 Y94.927 E5.13035
G1 X87.82 Y94.444 E5.14882
G1 X87.378 Y93.578 E5.18116
G1 X87.038 Y92.741 E5.21121
G1 X86.747 Y91.794 E5.24416
G1 X86.634 Y91.354 E5.25927
G1 X86.376 Y89.994 E5.30531
G1 X86.328 Y89.603 E5.31841
G1 X86.255 Y88.638 E5.3506
G1 X86.256 Y87.877 E5.37591
G1 X86.281 Y87.223 E5.39768
G1 X86.355 Y86.323 E5.42771
G1 X86.531 Y85.298 E5.4623
G1 X86.807 Y84.231 E5.49896
G1 X87.101 Y83.308 E5.53118
G1 X87.44 Y82.482 E5.56088
G1 X87.867 Y81.62 E5.59287
G1 X88.191 Y81.07 E5.6141
G1 X88.882 Y79.979 E5.65705
G1 X89.157 Y79.573 E5.67336
G1 X89.724 Y78.811 E5.70496
G1 X90.115 Y78.355 E5.72493
G0 F6000 X90.411 Y78.624
G1 F1200 X90.776 Y78.221 E5.74302
G1 X92.513 Y76.25 E5.8304
G1 X94.114 Y74.328 E5.9136
G1 X95.706 Y72.302 E5.9993
G1 X96.462 Y71.298 E6.0411
G1 X96.814 Y70.853 E6.05997
G1 X97.432 Y70.14 E6.09135
G1 X98.404 Y69.226 E6.13573
G1 X99.519 Y68.402 E6.18184
G1 X102.402 Y66.486 E6.29698
G1 X103.208 Y66.009 E6.32813
G1 X104.056 Y65.602 E6.35941
G1 X104.902 Y65.285 E6.38946
G1 X105.492 Y65.11 E6.40993
G1 X107.205 Y64.657 E6.46886
G1 X107.712 Y64.536 E6.4862
G1 X109.634 Y64.145 E6.55143
G1 X112.37 Y63.522 E6.64476
G1 X113.259 Y63.36 E6.67482
G1 X114.601 Y63.262 E6.71957
G1 X115.47 Y63.256 E6.74848
G1 X115.933 Y63.264 E6.76388
G1 X116.88 Y63.322 E6.79543
G1 X118.123 Y63.462 E6.83704
G1 X118.986 Y63.587 E6.86604
G1 X119.985 Y63.756 E6.89974
G1 X122.58 Y64.158 E6.98708
G1 X123.991 Y64.338 E7.03439
G1 X124.534 Y64.419 E7.05265
G1 X125.448 Y64.597 E7.08362
G1 X125.9 Y64.718 E7.09918
G1 X127.858 Y65.283 E7.16696
G1 X128.747 Y65.584 E7.19818
G1 X129.606 Y65.962 E7.22939
G1 X130.398 Y66.397 E7.25945
G1 X131.178 Y66.919 E7.29066
G1 X131.578 Y67.229 E7.3075
G1 X133.052 Y68.436 E7.37086
G1 X135.039 Y70 E7.45497
G1 X137.025 Y71.476 E7.53727
G1 X140.164 Y73.643 E7.66413
G1 X141.686 Y74.648 E7.72479
G1 X142.445 Y75.2 E7.75601
G1 X143.126 Y75.793 E7.78604
G1 X143.801 Y76.495 E7.81843
G1 X144.388 Y77.228 E7.84967
G1 X144.889 Y77.979 E7.87969
G1 X145.444 Y79.016 E7.91881
G1 X145.649 Y79.459 E7.93505
G1 X146.005 Y80.327 E7.96625
G1 X146.283 Y81.223 E7.99745
G1 X146.48 Y82.141 E8.02868
G1 X146.593 Y83.037 E8.05872
G1 X146.624 Y83.572 E8.07654
G1 X146.639 Y84.198 E8.09737
G1 X146.643 Y86.023 E8.15807
G1 X146.633 Y86.854 E8.18571
G1 X146.578 Y87.797 E8.21713
G1 X146.384 Y89 E8.25766
G1 X146.307 Y89.345 E8.26942
G1 X146.059 Y90.254 E8.30075
G1 X145.654 Y91.316 E8.33856
G1 X145.265 Y92.187 E8.37028
G1 X144.861 Y92.995 E8.40033
G1 X144.35 Y93.822 E8.43266
G1 X143.856 Y94.489 E8.46027
G1 X143.538 Y94.883 E8.47711
G1 X142.715 Y95.791 E8.51787
G1 X140.531 Y97.983 E8.62079
G1 X138.781 Y99.849 E8.70587
G1 X137.067 Y101.786 E8.7919
G1 X136.504 Y102.44 E8.8206
G1 X136.02 Y102.966 E8.84438
G1 X135.32 Y103.675 E8.87751
G1 X134.587 Y104.377 E8.91127
G1 X133.775 Y105.073 E8.94684
G1 X132.445 Y106.099 E9.00271
G1 X132.043 Y106.393 E9.01928
G1 X130.514 Y107.446 E9.08102
G1 X128.474 Y108.913 E9.1646
G1 X126.489 Y110.429 E9.24767
G1 X125.878 Y110.926 E9.27387
G1 X125.663 Y111.086 E9.28278
G1 X124.694 Y111.86 E9.32403
G1 X123.628 Y112.608 E9.36734
G1 X123.216 Y112.861 E9.38342
G1 X122.395 Y113.314 E9.41461
G1 X121.544 Y113.692 E9.44558
G1 X121.055 Y113.87 E9.46289
G1 X120.35 Y114.106 E9.48762
G1 X119.448 Y114.364 E9.51882
G1 X118.561 Y114.535 E9.54886
G1 X117.999 Y114.604 E9.5677
G1 X117.425 Y114.658 E9.58687
G1 X116.486 Y114.705 E9.61814
G1 X115.476 Y114.661 E9.65177
G1 X114.869 Y114.604 E9.67205
G1 X113.939 Y114.475 E9.70327
G1 X113.032 Y114.266 E9.73423
G1 X112.553 Y114.121 E9.75088
G1 X111.895 Y113.904 E9.77392
G1 X111.018 Y113.57 E9.80513
G1 X110.177 Y113.161 E9.83624
G1 X109.308 Y112.652 E9.86973
G1 X108.555 Y112.154 E9.89976
G1 X108.149 Y111.845 E9.91673
G1 X106.788 Y110.743 E9.97498
G1 X104.806 Y109.199 E10.05854
G1 X102.749 Y107.687 E10.14345
G1 X100.87 Y106.381 E10.21956
G1 X100.432 Y106.059 E10.23764
G1 X99.112 Y105.035 E10.29321
G1 X98.329 Y104.362 E10.32755
G1 X95.971 Y102.126 E10.43563
G1 X94.096 Y100.446 E10.51936
G1 X91.719 Y98.444 E10.62273
G1 X91.272 Y98.077 E10.64196
G1 X90.41 Y97.286 E10.68087
G1 X90.206 Y97.075 E10.69064
G1 X89.329 Y96.047 E10.73558
G1 X89.136 Y95.788 E10.74632
G1 X88.429 Y94.708 E10.78925
G1 X88.176 Y94.262 E10.80631
G1 X87.749 Y93.427 E10.8375
G1 X87.409 Y92.59 E10.86755
G1 X87.134 Y91.694 E10.89872
G1 X87.027 Y91.279 E10.91298
G1 X86.773 Y89.945 E10.95814
G1 X86.727 Y89.572 E10.97064
G1 X86.655 Y88.639 E11.00177
G1 X86.656 Y87.892 E11.02661
G1 X86.68 Y87.256 E11.04778
G1 X86.754 Y86.356 E11.07782
G1 X86.918 Y85.398 E11.11014
G1 X87.188 Y84.352 E11.14607
G1 X87.471 Y83.46 E11.1772
G1 X87.799 Y82.659 E11.20599
G1 X88.212 Y81.823 E11.237
G1 X88.529 Y81.284 E11.2578
G1 X89.214 Y80.203 E11.30036
G1 X89.478 Y79.812 E11.31606
G1 X90.045 Y79.05 E11.34765
G1 X90.411 Y78.624 E11.36633
G0 F6000 X90.707 Y78.893
G1 F1200 X91.072 Y78.49 E11.38441
G1 X92.813 Y76.515 E11.47198
G1 X94.429 Y74.575 E11.55596
G1 X96.021 Y72.549 E11.64166
G1 X96.776 Y71.546 E11.68341
G1 X97.117 Y71.114 E11.70172
G1 X97.707 Y70.431 E11.73174
G1 X98.642 Y69.548 E11.77451
G1 X99.757 Y68.724 E11.82062
G1 X102.606 Y66.83 E11.93441
G1 X103.382 Y66.369 E11.96443
G1 X104.196 Y65.977 E11.99448
G1 X105.042 Y65.66 E12.02453
G1 X105.594 Y65.497 E12.04367
G1 X107.298 Y65.046 E12.1023
G1 X107.795 Y64.927 E12.1193
G1 X108.527 Y64.772 E12.14418
G1 X109.723 Y64.535 E12.18473
G1 X112.442 Y63.916 E12.27748
G1 X113.331 Y63.754 E12.30754
G1 X114.604 Y63.662 E12.34999
G1 X115.464 Y63.656 E12.37859
G1 X115.908 Y63.663 E12.39336
G1 X116.835 Y63.72 E12.42425
G1 X118.066 Y63.858 E12.46545
G1 X118.919 Y63.981 E12.49412
G1 X119.924 Y64.151 E12.52802
G1 X122.529 Y64.555 E12.6157
G1 X123.932 Y64.734 E12.66274
G1 X124.458 Y64.812 E12.68042
G1 X125.345 Y64.984 E12.71048
G1 X125.789 Y65.102 E12.72576
G1 X127.73 Y65.662 E12.79295
G1 X128.586 Y65.95 E12.82299
G1 X129.413 Y66.313 E12.85303
G1 X130.205 Y66.748 E12.88308
G1 X130.955 Y67.251 E12.91311
G1 X131.325 Y67.538 E12.92869
G1 X132.805 Y68.75 E12.99231
G1 X134.8 Y70.321 E13.07677
G1 X136.786 Y71.797 E13.15907
G1 X139.944 Y73.977 E13.2867
G1 X141.451 Y74.972 E13.34676
G1 X142.182 Y75.502 E13.3768
G1 X142.863 Y76.095 E13.40683
G1 X143.489 Y76.746 E13.43687
G1 X144.055 Y77.45 E13.46691
G1 X144.556 Y78.201 E13.49694
G1 X145.081 Y79.185 E13.53403
G1 X145.279 Y79.611 E13.54966
G1 X145.623 Y80.446 E13.5797
G1 X145.892 Y81.308 E13.60973
G1 X146.083 Y82.191 E13.63978
G1 X146.196 Y83.087 E13.66981
G1 X146.224 Y83.582 E13.6863
G1 X146.239 Y84.199 E13.70683
G1 X146.243 Y86.019 E13.76737
G1 X146.234 Y86.831 E13.79437
G1 X146.183 Y87.733 E13.82442
G1 X145.989 Y88.936 E13.86495
G1 X145.921 Y89.24 E13.87531
G1 X145.685 Y90.111 E13.90533
G1 X145.28 Y91.173 E13.94313
G1 X144.907 Y92.008 E13.97355
G1 X144.503 Y92.816 E14.00359
G1 X144.028 Y93.584 E14.03363
G1 X143.544 Y94.238 E14.06069
G1 X143.241 Y94.615 E14.07678
G1 X142.432 Y95.509 E14.11688
G1 X140.239 Y97.709 E14.2202
G1 X138.489 Y99.575 E14.30528
G1 X136.767 Y101.521 E14.39171
G1 X136.21 Y102.169 E14.42013
G1 X135.735 Y102.685 E14.44346
G1 X135.043 Y103.386 E14.47622
G1 X134.327 Y104.073 E14.50922
G1 X133.531 Y104.756 E14.54411
G1 X132.209 Y105.776 E14.59964
G1 X131.816 Y106.064 E14.61585
G1 X130.287 Y107.117 E14.6776
G1 X128.231 Y108.595 E14.76181
G1 X126.246 Y110.111 E14.84489
G1 X125.639 Y110.605 E14.87092
G1 X125.413 Y110.773 E14.88028
G1 X124.444 Y111.547 E14.92153
G1 X123.419 Y112.267 E14.96319
G1 X123.022 Y112.511 E14.97869
G1 X122.232 Y112.949 E15.00874
G1 X121.407 Y113.316 E15.03877
G1 X120.928 Y113.491 E15.05573
G1 X120.24 Y113.722 E15.07987
G1 X119.372 Y113.971 E15.1099
G1 X118.485 Y114.142 E15.13995
G1 X117.961 Y114.206 E15.15751
G1 X117.405 Y114.259 E15.17608
G1 X116.503 Y114.305 E15.20612
G1 X115.493 Y114.261 E15.23975
G1 X114.923 Y114.208 E15.25879
G1 X114.028 Y114.085 E15.28883
G1 X113.148 Y113.883 E15.31886
G1 X112.678 Y113.741 E15.33519
G1 X112.037 Y113.53 E15.35764
G1 X111.192 Y113.21 E15.38769
G1 X110.379 Y112.816 E15.41774
G1 X109.529 Y112.318 E15.45051
G1 X108.776 Y111.82 E15.48053
G1 X108.401 Y111.534 E15.49622
G1 X107.04 Y110.432 E15.55446
G1 X105.052 Y108.883 E15.63829
G1 X102.986 Y107.365 E15.72356
G1 X101.107 Y106.059 E15.79967
G1 X100.677 Y105.743 E15.81741
G1 X99.372 Y104.731 E15.87234
G1 X98.604 Y104.072 E15.906
G1 X96.238 Y101.828 E16.01446
G1 X94.363 Y100.148 E16.09819
G1 X91.977 Y98.138 E16.20196
G1 X91.542 Y97.782 E16.22065
G1 X90.697 Y97.007 E16.25879
G1 X90.51 Y96.815 E16.2677
G1 X89.649 Y95.807 E16.31179
G1 X89.471 Y95.569 E16.32168
G1 X88.777 Y94.51 E16.36379
G1 X88.532 Y94.08 E16.38025
G1 X88.12 Y93.276 E16.4103
G1 X87.78 Y92.439 E16.44035
G1 X87.521 Y91.593 E16.46977
G1 X87.42 Y91.204 E16.48314
G1 X87.17 Y89.896 E16.52743
G1 X87.126 Y89.541 E16.53933
G1 X87.055 Y88.64 E16.56939
G1 X87.056 Y87.907 E16.59377
G1 X87.079 Y87.289 E16.61434
G1 X87.153 Y86.389 E16.64437
G1 X87.305 Y85.498 E16.67444
G1 X87.569 Y84.472 E16.70967
G1 X87.841 Y83.611 E16.73971
G1 X88.158 Y82.836 E16.76756
G1 X88.557 Y82.026 E16.79759
G1 X88.867 Y81.498 E16.81795
G1 X89.546 Y80.427 E16.86013
G1 X89.81 Y80.036 E16.87582
G1 X90.348 Y79.311 E16.90585
G1 X90.707 Y78.893 E16.92417
G1 F2700 E11.92417
G0 F6000 X98.411 Y85.866
G1 F2700 E16.92417
G1 F1200 X99.064 Y85.237 E16.95433
G1 X99.782 Y84.574 E16.98684
G1 X99.816 Y84.561 E16.98805
G1 X99.851 Y84.544 E16.98934
G1 X100.358 Y84.221 E17.00933
G1 X100.376 Y84.208 E17.01007
G1 X100.431 Y84.164 E17.01242
G1 X101.621 Y83.798 E17.05382
G1 X101.647 Y83.788 E17.05475
G1 X102.421 Y83.422 E17.08323
G1 X102.435 Y83.415 E17.08375
G1 X102.685 Y83.272 E17.09333
G1 X102.698 Y83.263 E17.09385
G1 X102.998 Y83.059 E17.10592
G1 X103.008 Y83.053 E17.10631
G1 X103.303 Y82.826 E17.11869
G1 X103.316 Y82.815 E17.11925
G1 X103.645 Y82.516 E17.13404
G1 X103.659 Y82.501 E17.13472
G1 X103.929 Y82.199 E17.1482
G1 X103.944 Y82.18 E17.149
G1 X104.17 Y81.856 E17.16214
G1 X104.178 Y81.845 E17.16259
G1 X104.39 Y81.491 E17.17632
G1 X104.401 Y81.468 E17.17717
G1 X104.547 Y81.132 E17.18935
G1 X104.553 Y81.118 E17.18986
G1 X104.706 Y80.678 E17.20535
G1 X104.71 Y80.663 E17.20587
G1 X104.78 Y80.399 E17.21495
G1 X104.784 Y80.383 E17.2155
G1 X104.836 Y80.093 E17.2253
G1 X104.838 Y80.081 E17.2257
G1 X104.915 Y79.43 E17.24751
G1 X104.916 Y79.419 E17.24787
G1 X104.96 Y78.711 E17.27147
G1 X104.96 Y78.702 E17.27177
G1 X104.969 Y78.152 E17.29006
G1 X105.087 Y77.783 E17.30295
G1 X105.257 Y77.571 E17.31199
G1 X105.405 Y77.446 E17.31843
G1 X105.64 Y77.325 E17.32722
G1 X105.889 Y77.263 E17.33576
G1 X105.9 Y77.26 E17.33613
G1 X106.178 Y77.172 E17.34583
G1 X106.2 Y77.164 E17.34661
G1 X106.545 Y77.01 E17.35918
G1 X106.563 Y77 E17.35986
G1 X106.78 Y76.875 E17.36819
G1 X106.801 Y76.861 E17.36903
G1 X107.147 Y76.598 E17.38349
G1 X107.173 Y76.574 E17.38466
G1 X107.457 Y76.264 E17.39865
G1 X107.465 Y76.255 E17.39905
G1 X107.68 Y75.99 E17.4104
G1 X108.216 Y75.586 E17.43272
G1 X108.345 Y75.607 E17.43707
G1 X108.618 Y75.542 E17.4464
G1 X108.63 Y75.539 E17.44681
G1 X108.959 Y75.44 E17.45824
G1 X108.967 Y75.437 E17.45853
G1 X109.838 Y75.132 E17.48922
G1 X109.856 Y75.149 E17.49004
G1 X110.022 Y75.151 E17.49556
G1 X110.052 Y75.138 E17.49665
G1 X110.057 Y75.146 E17.49697
G1 X110.149 Y75.23 E17.50111
G1 X110.211 Y75.246 E17.50324
G1 X110.682 Y75.294 E17.51899
G1 X110.713 Y75.295 E17.52002
G1 X111.342 Y75.261 E17.54097
G1 X111.458 Y75.215 E17.54512
G1 X111.505 Y75.16 E17.54753
G1 X111.515 Y75.143 E17.54818
G1 X111.536 Y75.152 E17.54894
G1 X111.66 Y75.163 E17.55308
G1 X111.71 Y75.124 E17.55519
G1 X111.872 Y75.181 E17.5609
G1 X111.936 Y75.192 E17.56306
G1 X112.313 Y75.197 E17.5756
G1 X112.338 Y75.196 E17.57643
G1 X112.672 Y75.159 E17.58761
G1 X112.704 Y75.153 E17.58869
